gama.ui.shared/icons_svg/dark/status/status.progress2.svg

<svg height="24.75" viewBox="-850.872 -3408.886 24.75 24.75" width="24.75" xmlns="http://www.w3.org/2000/svg"><path d="m-837.4233-3389.4812c2.1086-.3222 3.9878-1.5738 5.0852-3.4748 1.8818-3.259.895-7.4154-2.2281-9.482-.2047-.1355-.2608-.4112-.1254-.616.1355-.2046.4112-.2608.6159-.1253 3.5144 2.3255 4.6245 7.0011 2.5074 10.6679-1.2279 2.1269-3.3273 3.5319-5.6839 3.9031l2.1879 1.2633c.2126.1227.2854.3945.1627.607-.1227.2127-.3945.2855-.6071.1628l-3.0792-1.7778c-.2126-.1228-.2854-.3946-.1627-.607l1.7778-3.0794c.1227-.2126.3945-.2854.6071-.1626.2126.1227.2854.3945.1627.607zm-2.1463-14.0604c-2.1084.3221-3.9878 1.5736-5.0853 3.4746-1.8877 3.2696-.8883 7.44 2.2552 9.5.2053.1345.2626.41.1281.6153s-.41.2627-.6153.1281c-3.5372-2.3178-4.6615-7.0094-2.5378-10.6878 1.2281-2.1271 3.3276-3.532 5.684-3.9032l-2.188-1.2634c-.2125-.1226-.2854-.3944-.1626-.607.1227-.2125.3945-.2854.6071-.1626l3.0792 1.7776c.2126.123.2854.3947.1627.6073l-1.7778 3.0792c-.1227.2125-.3946.2855-.6071.1625-.2126-.1226-.2854-.3944-.1627-.607z" fill="#8eed62"/></svg>

<?xml version="1.0" encoding="UTF-8" standalone="no"?>
<!DOCTYPE svg PUBLIC "-//W3C//DTD SVG 1.1//EN" "http://www.w3.org/Graphics/SVG/1.1/DTD/svg11.dtd">
<svg xmlns="http://www.w3.org/2000/svg" xmlns:xl="http://www.w3.org/1999/xlink" version="1.1" xmlns:dc="http://purl.org/dc/elements/1.1/" viewBox="-850.872 -3408.8856 24.75 24.75" width="24.75" height="24.75">
  <defs/>
  <g id="SOURCES" stroke-opacity="1" fill="none" stroke="none" fill-opacity="1" stroke-dasharray="none">
    <title>SOURCES</title>
    <g id="SOURCES_Dark">
      <title>Dark</title>
      <g id="Graphic_11601"/>
      <g id="Graphic_11602">
        <path d="M -837.4233 -3389.4812 C -835.3147 -3389.8034 -833.4355 -3391.055 -832.3381 -3392.956 C -830.4563 -3396.215 -831.4431 -3400.3714 -834.5662 -3402.438 C -834.7709 -3402.5735 -834.827 -3402.8492 -834.6916 -3403.054 C -834.5561 -3403.2586 -834.2804 -3403.3148 -834.0757 -3403.1793 C -830.5613 -3400.8538 -829.4512 -3396.1782 -831.5683 -3392.5114 C -832.7962 -3390.3845 -834.8956 -3388.9795 -837.2522 -3388.6083 L -835.0643 -3387.345 C -834.8517 -3387.2223 -834.7789 -3386.9505 -834.9016 -3386.738 C -835.0243 -3386.5253 -835.2961 -3386.4525 -835.5087 -3386.5752 L -838.5879 -3388.353 C -838.8005 -3388.4758 -838.8733 -3388.7476 -838.7506 -3388.96 L -836.9728 -3392.0394 C -836.8501 -3392.252 -836.5783 -3392.3248 -836.3657 -3392.202 C -836.1531 -3392.0793 -836.0803 -3391.8075 -836.203 -3391.595 L -837.4233 -3389.4812 Z M -839.5696 -3403.5416 C -841.678 -3403.2195 -843.5574 -3401.968 -844.6549 -3400.067 C -846.5426 -3396.7974 -845.5432 -3392.627 -842.3997 -3390.567 C -842.1944 -3390.4325 -842.1371 -3390.157 -842.2716 -3389.9517 C -842.4061 -3389.7464 -842.6816 -3389.689 -842.8869 -3389.8236 C -846.4241 -3392.1414 -847.5484 -3396.833 -845.4247 -3400.5114 C -844.1966 -3402.6385 -842.0971 -3404.0434 -839.7407 -3404.4146 L -841.9287 -3405.678 C -842.1412 -3405.8006 -842.2141 -3406.0724 -842.0913 -3406.285 C -841.9686 -3406.4975 -841.6968 -3406.5704 -841.4842 -3406.4476 L -838.405 -3404.67 C -838.1924 -3404.547 -838.1196 -3404.2753 -838.2423 -3404.0627 L -840.0201 -3400.9835 C -840.1428 -3400.771 -840.4147 -3400.698 -840.6272 -3400.821 C -840.8398 -3400.9436 -840.9126 -3401.2154 -840.7899 -3401.428 Z" fill="#8eed62"/>
      </g>
    </g>
  </g>
</svg>
